X:1115
M:C
L:1/8
Q:1/4=120
K:F
  c|f3   g  f2F2|A>Bc>d c2BA|f3 g  f2 ed|e>fga     g2
fg |a2 Tg>f f2F2|A2 c2  a3 g|f>gfe d>efd|c2 A>B [1 A3:|[2 A2:|

